X:1
T: The Cup of Tea
P:O'Neill's version
R:Reel
Q: 232
K:D
M:4/4
L:1/8
A|BA GF GE EF|GE BE GE EA|BA GF GE EG|FD AG FD DA|
BA GF GE EF|GE BE GE EA|BA GF GA Bc|dB AG FD DA|
d2 eg fd ec|d2 eg fB Bc|d2 eg fd ec|dB AG FD DA|
d2 eg fd ec|df af g2 fg|af ge fd ec|dB AG FD DG|
FA dA FA BA|FA dA FD DG|FA dA DA Bc|dB AG FD DG|
FA dA FA BA|FA dA FD De|f2 ec dB AF|GB AG FD D||
